files/resources/svgs/general/s-wallet.svg

<svg width="24" height="24" viewBox="0 0 24 24" fill="none" xmlns="http://www.w3.org/2000/svg">
<path d="M2.27307 5.62524C3.06638 4.92494 4.10851 4.5 5.24989 4.5H18.7499C19.8913 4.5 20.9334 4.92494 21.7267 5.62524C21.5423 4.14526 20.2798 3 18.7499 3H5.24989C3.71995 3 2.4575 4.14525 2.27307 5.62524Z" fill="#0F172A"/>
<path d="M2.27307 8.62524C3.06638 7.92494 4.10851 7.5 5.24989 7.5H18.7499C19.8913 7.5 20.9334 7.92494 21.7267 8.62524C21.5423 7.14526 20.2798 6 18.7499 6H5.24989C3.71995 6 2.4575 7.14525 2.27307 8.62524Z" fill="#0F172A"/>
<path d="M5.25 9C3.59315 9 2.25 10.3431 2.25 12V18C2.25 19.6569 3.59315 21 5.25 21H18.75C20.4069 21 21.75 19.6569 21.75 18V12C21.75 10.3431 20.4069 9 18.75 9H15C14.5858 9 14.25 9.33579 14.25 9.75C14.25 10.9926 13.2426 12 12 12C10.7574 12 9.75 10.9926 9.75 9.75C9.75 9.33579 9.41421 9 9 9H5.25Z" fill="#0F172A"/>
</svg>

<svg xmlns="http://www.w3.org/2000/svg" viewBox="0 0 24 24" fill="currentColor" aria-hidden="true">
  <path d="M2.273 5.625A4.483 4.483 0 015.25 4.5h13.5c1.141 0 2.183.425 2.977 1.125A3 3 0 0018.75 3H5.25a3 3 0 00-2.977 2.625zM2.273 8.625A4.483 4.483 0 015.25 7.5h13.5c1.141 0 2.183.425 2.977 1.125A3 3 0 0018.75 6H5.25a3 3 0 00-2.977 2.625zM5.25 9a3 3 0 00-3 3v6a3 3 0 003 3h13.5a3 3 0 003-3v-6a3 3 0 00-3-3H15a.75.75 0 00-.75.75 2.25 2.25 0 01-4.5 0A.75.75 0 009 9H5.25z"/>
</svg>
